X: 261
M: 6/8
L: 1/8
K: C
V: 1
e/d/ |\
e2E Gcc | cAc c2A | (G/A/B)B B2c | BGA Bed |\
c2G A2A | G2[AF] EFG | [c2F2][cF] [cE][BF][cG] | [B3F3] [cE2]ed :|
|: (c/d/e).e e2f | e2d c2A | G/A/BB B2c | BcA GAB |\
V: 2
g/f/ |\
e2c ceg | afa gec | (B/c/d).d d2e | dBc dgf |\
e2c cdc | cGc cde | fga gfe | d3 cgf :|
|: (e/f/g)g .g2a | gef gec | B/c/dd d2g | dec Bcd |\
e>fe e<ge | f2a gec | fga g<c'e | d3 cgf :|
V: 3 clef=bass middle=d
z |\
c3 e3 | f2f e2f | g3 G3 | g3 B3 |\
c2e f2f | e2c' c'b_b | agf edc | g2G c2B :|
|: c3 C3 | c2d e2f | g2G gfe | f2^f g3 |\
c'2c c'2_b | a2f e2c | A2f c'2c | g2G c2B :|


